shared/logo.svg

<svg xmlns="http://www.w3.org/2000/svg" xmlns:xlink="http://www.w3.org/1999/xlink" width="300" zoomAndPan="magnify" viewBox="0 0 224.87999 225" height="300" preserveAspectRatio="xMidYMid meet" version="1.0"><defs><clipPath id="a47227379d"><path d="M 63.167969 46.949219 L 125.480469 46.949219 L 125.480469 109 L 63.167969 109 Z M 63.167969 46.949219 " clip-rule="nonzero"/></clipPath><clipPath id="b0e0930bff"><path d="M 70.664062 46.949219 L 117.628906 46.949219 C 121.769531 46.949219 125.125 50.304688 125.125 54.445312 L 125.125 101.410156 C 125.125 105.546875 121.769531 108.90625 117.628906 108.90625 L 70.664062 108.90625 C 66.527344 108.90625 63.167969 105.546875 63.167969 101.410156 L 63.167969 54.445312 C 63.167969 50.304688 66.527344 46.949219 70.664062 46.949219 " clip-rule="nonzero"/></clipPath><clipPath id="81a4634430"><path d="M 63.167969 46.949219 L 125.386719 46.949219 L 125.386719 109.167969 L 63.167969 109.167969 Z M 63.167969 46.949219 " clip-rule="nonzero"/></clipPath><clipPath id="ff983d7581"><path d="M 70.699219 46.949219 L 117.859375 46.949219 C 122.015625 46.949219 125.386719 50.320312 125.386719 54.476562 L 125.386719 101.640625 C 125.386719 105.796875 122.015625 109.167969 117.859375 109.167969 L 70.699219 109.167969 C 66.539062 109.167969 63.167969 105.796875 63.167969 101.640625 L 63.167969 54.476562 C 63.167969 50.320312 66.539062 46.949219 70.699219 46.949219 " clip-rule="nonzero"/></clipPath><clipPath id="36b85a285f"><path d="M 81.460938 116.09375 L 143.773438 116.09375 L 143.773438 178.40625 L 81.460938 178.40625 Z M 81.460938 116.09375 " clip-rule="nonzero"/></clipPath><clipPath id="ae836c470d"><path d="M 88.957031 116.09375 L 135.921875 116.09375 C 140.0625 116.09375 143.417969 119.453125 143.417969 123.589844 L 143.417969 170.554688 C 143.417969 174.695312 140.0625 178.050781 135.921875 178.050781 L 88.957031 178.050781 C 84.820312 178.050781 81.460938 174.695312 81.460938 170.554688 L 81.460938 123.589844 C 81.460938 119.453125 84.820312 116.09375 88.957031 116.09375 " clip-rule="nonzero"/></clipPath><clipPath id="eb9eb8e124"><path d="M 81.460938 116.09375 L 143.679688 116.09375 L 143.679688 178.3125 L 81.460938 178.3125 Z M 81.460938 116.09375 " clip-rule="nonzero"/></clipPath><clipPath id="9bd10f9a18"><path d="M 88.988281 116.09375 L 136.152344 116.09375 C 140.308594 116.09375 143.679688 119.464844 143.679688 123.621094 L 143.679688 170.785156 C 143.679688 174.941406 140.308594 178.3125 136.152344 178.3125 L 88.988281 178.3125 C 84.832031 178.3125 81.460938 174.941406 81.460938 170.785156 L 81.460938 123.621094 C 81.460938 119.464844 84.832031 116.09375 88.988281 116.09375 " clip-rule="nonzero"/></clipPath><clipPath id="c4343dc260"><path d="M 12.011719 116.09375 L 74 116.09375 L 74 178.40625 L 12.011719 178.40625 Z M 12.011719 116.09375 " clip-rule="nonzero"/></clipPath><clipPath id="cc65487d7f"><path d="M 19.507812 116.09375 L 66.46875 116.09375 C 70.609375 116.09375 73.964844 119.453125 73.964844 123.589844 L 73.964844 170.554688 C 73.964844 174.695312 70.609375 178.050781 66.46875 178.050781 L 19.507812 178.050781 C 15.367188 178.050781 12.011719 174.695312 12.011719 170.554688 L 12.011719 123.589844 C 12.011719 119.453125 15.367188 116.09375 19.507812 116.09375 " clip-rule="nonzero"/></clipPath><clipPath id="8635625a6e"><path d="M 12.011719 116.09375 L 74.226562 116.09375 L 74.226562 178.3125 L 12.011719 178.3125 Z M 12.011719 116.09375 " clip-rule="nonzero"/></clipPath><clipPath id="62787fc6cc"><path d="M 19.539062 116.09375 L 66.699219 116.09375 C 70.859375 116.09375 74.226562 119.464844 74.226562 123.621094 L 74.226562 170.785156 C 74.226562 174.941406 70.859375 178.3125 66.699219 178.3125 L 19.539062 178.3125 C 15.382812 178.3125 12.011719 174.941406 12.011719 170.785156 L 12.011719 123.621094 C 12.011719 119.464844 15.382812 116.09375 19.539062 116.09375 " clip-rule="nonzero"/></clipPath><clipPath id="af3aecb2e9"><path d="M 150.914062 116.09375 L 213 116.09375 L 213 178.40625 L 150.914062 178.40625 Z M 150.914062 116.09375 " clip-rule="nonzero"/></clipPath><clipPath id="b219244d22"><path d="M 158.410156 116.09375 L 205.371094 116.09375 C 209.511719 116.09375 212.867188 119.453125 212.867188 123.589844 L 212.867188 170.554688 C 212.867188 174.695312 209.511719 178.050781 205.371094 178.050781 L 158.410156 178.050781 C 154.269531 178.050781 150.914062 174.695312 150.914062 170.554688 L 150.914062 123.589844 C 150.914062 119.453125 154.269531 116.09375 158.410156 116.09375 " clip-rule="nonzero"/></clipPath><clipPath id="e43d0a6d1d"><path d="M 150.914062 116.09375 L 213.128906 116.09375 L 213.128906 178.3125 L 150.914062 178.3125 Z M 150.914062 116.09375 " clip-rule="nonzero"/></clipPath><clipPath id="d98c255f90"><path d="M 158.441406 116.09375 L 205.601562 116.09375 C 209.761719 116.09375 213.128906 119.464844 213.128906 123.621094 L 213.128906 170.785156 C 213.128906 174.941406 209.761719 178.3125 205.601562 178.3125 L 158.441406 178.3125 C 154.285156 178.3125 150.914062 174.941406 150.914062 170.785156 L 150.914062 123.621094 C 150.914062 119.464844 154.285156 116.09375 158.441406 116.09375 " clip-rule="nonzero"/></clipPath></defs><g clip-path="url(#a47227379d)"><g clip-path="url(#b0e0930bff)"><path fill="#ae8cfa" d="M 63.167969 46.949219 L 125.480469 46.949219 L 125.480469 109.261719 L 63.167969 109.261719 Z M 63.167969 46.949219 " fill-opacity="1" fill-rule="nonzero"/></g></g><g clip-path="url(#81a4634430)"><g clip-path="url(#ff983d7581)"><path stroke-linecap="butt" transform="matrix(0.75286, 0, 0, 0.75286, 63.169739, 46.949626)" fill="none" stroke-linejoin="miter" d="M 10.001173 -0.000540694 L 72.642538 -0.000540694 C 78.163156 -0.000540694 82.640874 4.477178 82.640874 9.997795 L 82.640874 72.644349 C 82.640874 78.164966 78.163156 82.642685 72.642538 82.642685 L 10.001173 82.642685 C 4.475368 82.642685 -0.00235117 78.164966 -0.00235117 72.644349 L -0.00235117 9.997795 C -0.00235117 4.477178 4.475368 -0.000540694 10.001173 -0.000540694 " stroke="#ae8cfa" stroke-width="4" stroke-opacity="1" stroke-miterlimit="4"/></g></g><g clip-path="url(#36b85a285f)"><g clip-path="url(#ae836c470d)"><path fill="#ae8cfa" d="M 81.460938 116.09375 L 143.773438 116.09375 L 143.773438 178.40625 L 81.460938 178.40625 Z M 81.460938 116.09375 " fill-opacity="1" fill-rule="nonzero"/></g></g><g clip-path="url(#eb9eb8e124)"><g clip-path="url(#9bd10f9a18)"><path stroke-linecap="butt" transform="matrix(0.75286, 0, 0, 0.75286, 81.462371, 116.095149)" fill="none" stroke-linejoin="miter" d="M 9.996432 -0.0018582 L 72.642985 -0.0018582 C 78.163602 -0.0018582 82.641321 4.475861 82.641321 9.996478 L 82.641321 72.643031 C 82.641321 78.163649 78.163602 82.641367 72.642985 82.641367 L 9.996432 82.641367 C 4.475814 82.641367 -0.00190434 78.163649 -0.00190434 72.643031 L -0.00190434 9.996478 C -0.00190434 4.475861 4.475814 -0.0018582 9.996432 -0.0018582 " stroke="#ae8cfa" stroke-width="4" stroke-opacity="1" stroke-miterlimit="4"/></g></g><g clip-path="url(#c4343dc260)"><g clip-path="url(#cc65487d7f)"><path fill="#ae8cfa" d="M 12.011719 116.09375 L 74.324219 116.09375 L 74.324219 178.40625 L 12.011719 178.40625 Z M 12.011719 116.09375 " fill-opacity="1" fill-rule="nonzero"/></g></g><g clip-path="url(#8635625a6e)"><g clip-path="url(#62787fc6cc)"><path stroke-linecap="butt" transform="matrix(0.75286, 0, 0, 0.75286, 12.01113, 116.095149)" fill="none" stroke-linejoin="miter" d="M 9.999118 -0.0018582 L 72.640483 -0.0018582 C 78.166289 -0.0018582 82.638819 4.475861 82.638819 9.996478 L 82.638819 72.643031 C 82.638819 78.163649 78.166289 82.641367 72.640483 82.641367 L 9.999118 82.641367 C 4.4785 82.641367 0.000781686 78.163649 0.000781686 72.643031 L 0.000781686 9.996478 C 0.000781686 4.475861 4.4785 -0.0018582 9.999118 -0.0018582 " stroke="#ae8cfa" stroke-width="4" stroke-opacity="1" stroke-miterlimit="4"/></g></g><g clip-path="url(#af3aecb2e9)"><g clip-path="url(#b219244d22)"><path fill="#ae8cfa" d="M 150.914062 116.09375 L 213.226562 116.09375 L 213.226562 178.40625 L 150.914062 178.40625 Z M 150.914062 116.09375 " fill-opacity="1" fill-rule="nonzero"/></g></g><g clip-path="url(#e43d0a6d1d)"><g clip-path="url(#d98c255f90)"><path stroke-linecap="butt" transform="matrix(0.75286, 0, 0, 0.75286, 150.913602, 116.095149)" fill="none" stroke-linejoin="miter" d="M 9.998948 -0.0018582 L 72.640313 -0.0018582 C 78.166119 -0.0018582 82.638649 4.475861 82.638649 9.996478 L 82.638649 72.643031 C 82.638649 78.163649 78.166119 82.641367 72.640313 82.641367 L 9.998948 82.641367 C 4.478331 82.641367 0.000612212 78.163649 0.000612212 72.643031 L 0.000612212 9.996478 C 0.000612212 4.475861 4.478331 -0.0018582 9.998948 -0.0018582 " stroke="#ae8cfa" stroke-width="4" stroke-opacity="1" stroke-miterlimit="4"/></g></g></svg>

<svg xmlns="http://www.w3.org/2000/svg" width="300" height="300" version="1.0" viewBox="0 0 224.88 225"><defs><clipPath id="a"><path d="M63.168 46.95h62.312V109H63.168Zm0 0"/></clipPath><clipPath id="b"><path d="M70.664 46.95h46.965a7.495 7.495 0 0 1 7.496 7.495v46.965a7.5 7.5 0 0 1-7.496 7.496H70.664a7.5 7.5 0 0 1-7.496-7.496V54.445c0-4.14 3.36-7.496 7.496-7.496"/></clipPath><clipPath id="c"><path d="M63.168 46.95h62.219v62.218H63.168Zm0 0"/></clipPath><clipPath id="d"><path d="M70.7 46.95h47.16a7.53 7.53 0 0 1 7.527 7.527v47.164a7.53 7.53 0 0 1-7.528 7.527H70.7a7.53 7.53 0 0 1-7.531-7.527V54.477a7.53 7.53 0 0 1 7.531-7.528"/></clipPath><clipPath id="e"><path d="M81.46 116.094h62.313v62.312H81.461Zm0 0"/></clipPath><clipPath id="f"><path d="M88.957 116.094h46.965c4.14 0 7.496 3.36 7.496 7.496v46.965a7.495 7.495 0 0 1-7.496 7.496H88.957a7.5 7.5 0 0 1-7.496-7.496V123.59a7.5 7.5 0 0 1 7.496-7.496"/></clipPath><clipPath id="g"><path d="M81.46 116.094h62.22v62.219H81.46Zm0 0"/></clipPath><clipPath id="h"><path d="M88.988 116.094h47.164a7.53 7.53 0 0 1 7.528 7.527v47.164a7.53 7.53 0 0 1-7.528 7.528H88.988a7.53 7.53 0 0 1-7.527-7.528v-47.164a7.53 7.53 0 0 1 7.527-7.527"/></clipPath><clipPath id="i"><path d="M12.012 116.094H74v62.312H12.012Zm0 0"/></clipPath><clipPath id="j"><path d="M19.508 116.094h46.96c4.141 0 7.497 3.36 7.497 7.496v46.965a7.495 7.495 0 0 1-7.496 7.496H19.508a7.495 7.495 0 0 1-7.496-7.496V123.59a7.5 7.5 0 0 1 7.496-7.496"/></clipPath><clipPath id="k"><path d="M12.012 116.094h62.215v62.219H12.012Zm0 0"/></clipPath><clipPath id="l"><path d="M19.54 116.094H66.7a7.526 7.526 0 0 1 7.527 7.527v47.164a7.526 7.526 0 0 1-7.528 7.528H19.54a7.53 7.53 0 0 1-7.527-7.528v-47.164a7.53 7.53 0 0 1 7.527-7.527"/></clipPath><clipPath id="m"><path d="M150.914 116.094H213v62.312h-62.086Zm0 0"/></clipPath><clipPath id="n"><path d="M158.41 116.094h46.961c4.14 0 7.496 3.36 7.496 7.496v46.965a7.495 7.495 0 0 1-7.496 7.496h-46.96a7.495 7.495 0 0 1-7.497-7.496V123.59a7.5 7.5 0 0 1 7.496-7.496"/></clipPath><clipPath id="o"><path d="M150.914 116.094h62.215v62.219h-62.215Zm0 0"/></clipPath><clipPath id="p"><path d="M158.441 116.094h47.16a7.526 7.526 0 0 1 7.528 7.527v47.164a7.526 7.526 0 0 1-7.527 7.528h-47.16a7.53 7.53 0 0 1-7.528-7.528v-47.164a7.53 7.53 0 0 1 7.527-7.527"/></clipPath></defs><g clip-path="url(#a)"><g clip-path="url(#b)"><path fill="#ae8cfa" d="M63.168 46.95h62.312v62.312H63.168Zm0 0"/></g></g><g clip-path="url(#c)"><g clip-path="url(#d)"><path fill="none" stroke="#ae8cfa" stroke-width="3.01144" d="M70.7 46.95h47.16a7.53 7.53 0 0 1 7.527 7.527v47.164a7.53 7.53 0 0 1-7.528 7.527H70.7a7.53 7.53 0 0 1-7.531-7.527V54.477a7.53 7.53 0 0 1 7.531-7.528"/></g></g><g clip-path="url(#e)"><g clip-path="url(#f)"><path fill="#ae8cfa" d="M81.46 116.094h62.313v62.312H81.461Zm0 0"/></g></g><g clip-path="url(#g)"><g clip-path="url(#h)"><path fill="none" stroke="#ae8cfa" stroke-width="3.01144" d="M88.988 116.094h47.164a7.53 7.53 0 0 1 7.528 7.527v47.164a7.53 7.53 0 0 1-7.528 7.528H88.988a7.53 7.53 0 0 1-7.527-7.528v-47.164a7.53 7.53 0 0 1 7.527-7.527"/></g></g><g clip-path="url(#i)"><g clip-path="url(#j)"><path fill="#ae8cfa" d="M12.012 116.094h62.312v62.312H12.012Zm0 0"/></g></g><g clip-path="url(#k)"><g clip-path="url(#l)"><path fill="none" stroke="#ae8cfa" stroke-width="3.01144" d="M19.54 116.094H66.7a7.526 7.526 0 0 1 7.527 7.527v47.164a7.526 7.526 0 0 1-7.528 7.528H19.54a7.53 7.53 0 0 1-7.527-7.528v-47.164a7.53 7.53 0 0 1 7.527-7.527"/></g></g><g clip-path="url(#m)"><g clip-path="url(#n)"><path fill="#ae8cfa" d="M150.914 116.094h62.313v62.312h-62.313Zm0 0"/></g></g><g clip-path="url(#o)"><g clip-path="url(#p)"><path fill="none" stroke="#ae8cfa" stroke-width="3.01144" d="M158.441 116.094h47.16a7.526 7.526 0 0 1 7.528 7.527v47.164a7.526 7.526 0 0 1-7.527 7.528h-47.16a7.53 7.53 0 0 1-7.528-7.528v-47.164a7.53 7.53 0 0 1 7.527-7.527"/></g></g></svg>
